X:1
T:Christmas Bells
T:Christmas Bells
T:Alonzo Judson Abbey
T:Anzentia Igene Perry Chapman, 1881
T:Public Domain Courtesy of the Cyber Hymnal™
T:Public Domain Courtesy of the Cyber Hymnal™
C:Alonzo Judson Abbey
Z:Public Domain
Z:Courtesy of the Cyber Hymnal™
%%score ( 1 2 ) ( 3 4 )
L:1/8
Q:1/4=112
M:4/4
K:C
V:1 treble 
V:2 treble 
V:3 bass 
V:4 bass 
V:1
 [EG]2 [FA]2 [EG]2 [CE]2 | [EG]2 [Ec]2 [Fc]2 [FB]2 | [DF]2 [EG]2 [DF]2 [B,D]2 | %3
w: 1.~Chim- ing bells are|tune- ful ring- ing;|Joy- ful car- ols|
w: 2.~Glad- some day of|man’s sal- va- tion;|Spread the news to|
w: 3.~Bright o’er us the|light is beam- ing,|For with love the|
 [FB]2 [FA]2 [FA]2 [EG]2 | [Ec][Ec][Gc][Gc] [Gd]2 [Ge]2 | [Gd]6 z2 | [Ge]2 [Fd]2 [Ec]2 [EG]2 | %7
w: we are sing- ing;|Mer- ry, mer- ry Christ- mas|day;|Bright- est day of|
w: ev- ery na- tion;|Christ the Lord has come to|earth.|Praise Him now, our|
w: sky is teem- ing|At this mer- ry Christ- mas|time.|Glo- ry be to|
 [FB]2 [FA]2 [EG]4 | [Ge]2 [Fd]2 [Ec]2 [EG]2 | [FB]2 [FA]2 [EG]2 [EG][EG] | %10
w: all the year,|Bring- ing bless- èd|words of cheer, ’Tis our|
w: Sav- ior king,|Grate- ful off- erings|to Him bring; Chant a-|
w: God! our song|Saints and an- gels|now pro- long, While the|
 [FA]2 [Fd]2 [Ec]2 [DB]2 | [Ec]6 z2 ||"^Refrain" [Dd]2 [Dc]2 [DB]2 [Gc]2 | %13
w: Sav- ior’s na- tal|day.||
w: new Em- man- uel’s|birth.|Chim- ing bells are|
w: bells their car- ols|chime.||
 [Gd]2 [Ge]2 [Gd]2 [GB]2 | [Ac]2 [GB]2 [^FA]2 [GB]2 | [Ac]2 [^Fd]2 [Ac]2 [GB]2 | %16
w: |||
w: tune- ful ring- ing;|Joy- ful car- ols|we are sing- ing;|
w: |||
 [Gc][Gc][Gd][Gd] [Ge]2 [Gc]2 | d2 d2 d4 | [Gc][GB][FA][Fd] [Ec]2 [DB]2 | [Ec]6 z2 |] %20
w: ||||
w: Mer- ry, mer- ry Christ- mas,|Mer- ry, mer-|ry Christ- mas, Mer- ry, mer-|ry|
w: ||||
V:2
 x8 | x8 | x8 | x8 | x8 | x8 | x8 | x8 | x8 | x8 | x8 | x8 || x8 | x8 | x8 | x8 | x8 | %17
 GG^FF G2 G2 | x8 | x8 |] %20
V:3
 [C,C]2 [C,C]2 [C,C]2 [C,C]2 | [C,C]2 [C,G,]2 [D,G,]2 [D,G,]2 | [G,B,]2 [G,B,]2 [G,B,]2 [G,B,]2 | %3
 [G,B,]2 [G,B,]2 [C,C]2 [C,C]2 | [C,C][C,C][E,C][E,C] [G,B,]2 B,2 | ([G,B,]2 [G,B,]2 [G,B,]2) z2 | %6
 (C,C) (G,C) (C,C) (G,D) | (F,C) (A,C) (C,CG,C) | (C,C) (G,C) (C,C) (G,C) | %9
 (F,C) (A,C) [C,C]2 [C,C][C,C] | [F,C]2 [F,A,]2 G,2 [G,,G,]2 | [C,G,]6 z2 || %12
 [G,B,]2 [G,A,]2 G,2 [G,A,]2 | [G,B,]2 [G,C]2 [G,B,]2 [G,D]2 | [D,D]2 [D,D]2 [D,D]2 [D,D]2 | %15
 [D,D]2 [D,D]2 [G,D]2 [G,D]2 | [E,C][E,C][G,B,][G,B,] C2 [E,C]2 | %17
 [G,B,][G,B,][A,C][A,C] [B,D]2 [G,B,]2 | [E,C][E,C][F,C][F,A,] G,2 [G,,G,]2 | [C,G,]6 z2 |] %20
V:4
 x8 | x8 | x8 | x8 | x6 B,2 | x8 | x8 | x8 | x8 | x8 | x4 G,2 x2 | x8 || x4 G,2 x2 | x8 | x8 | x8 | %16
 x4 C2 x2 | x8 | x4 G,2 x2 | x8 |] %20

